Vector-dark/symbolic/status/arch-updates-symbolic.svg

<svg width="16" height="16" version="1.1" xmlns="http://www.w3.org/2000/svg">
 <path d="m8 0.5-6 2v7c0 2.07 1.5795 3.4895 2.9395 4.4395s3.0605 1.5605 3.0605 1.5605 1.7005-0.61055 3.0605-1.5605c1.36-0.96 2.9395-2.3995 2.9395-4.4395v-7l-6-2zm0 3.5c0.55228 0 1 0.44772 1 1s-0.44772 1-1 1-1-0.44772-1-1 0.44772-1 1-1zm-2 3h3v5h-2v-4h-1v-1z" fill="#dfdfdf"/>
 <path class="warning" d="m16 13.5a1.5 1.5 0 0 1-1.5 1.5 1.5 1.5 0 0 1-1.5-1.5 1.5 1.5 0 0 1 1.5-1.5 1.5 1.5 0 0 1 1.5 1.5z" fill="#3c7ee7"/>
</svg>

<svg xmlns="http://www.w3.org/2000/svg" width="16" height="16" version="1.1">
 <path style="fill:#ff9800" class="warning" d="M 16,13.5 A 1.5,1.5 0 0 1 14.5,15 1.5,1.5 0 0 1 13,13.5 1.5,1.5 0 0 1 14.5,12 1.5,1.5 0 0 1 16,13.5 Z"/>
 <path style="fill:#dfdfdf" d="M 8 1 C 6.175 2.725 3 4 2 4.25 C 2 9 4.25 14.25 8 15 C 11.75 14.25 14 9 14 4.25 C 13 4 9.825 2.725 8 1 z M 8 4 A 1 1 0 0 1 9 5 A 1 1 0 0 1 8 6 A 1 1 0 0 1 7 5 A 1 1 0 0 1 8 4 z M 6 7 L 7 7 L 9 7 L 9 12 L 7 12 L 7 8 L 6 8 L 6 7 z"/>
</svg>
